X:51
T:Wha Wadna Fight For Charlie
C:arr. Carlo Minasi
M:C
L:1/8
B:Chappell's One Hundred Scotch Melodies
B:Arranged for the Concertina by Carlo Minasi
Q:"Allegretto  "1/4=140
Z:Peter Dunk 2012
K:G
!mf![G2D2B,2](G>A) (B>A) (B<d)|[G2D2B,2](G>c) (B>d) [A2F2D2]|\
[G2D2B,2](G>A) (B>A) (B<d)|\
([ec]>g) ([dB]<g) ([BG]>g) H[A2F2D2]||
%
([BG][dB])([dB][ec]) ([gB][dB])([ec][dB])|\
([BG][dB]) ([dB][e/c/]f/) ([gB]>B) [A2F2D2]|\
([BG][dB])([dB][ec]) ([gB]>[dB]) ([ec][dB])|\
([ec]>g) ([dB]>g) ([BG]<g) [A2F2D2]|
%
[G2D2B,2](G>A) (B>A) (B<d)|[G2D2B,2](G>c) (B>d) [A2F2D2]|\
[G2D2B,2](G>A) (B>A) (B<d)|\
([ec]>g) ([dB]<g) ([BG]>g) H[A2F2D2]||

